astro/static/img/planets/08-uranus.svg

<?xml version="1.0" encoding="UTF-8" standalone="no"?>
<!-- Created with Inkscape (http://www.inkscape.org/) -->
<svg xmlns:dc="http://purl.org/dc/elements/1.1/" xmlns:cc="http://web.resource.org/cc/" xmlns:rdf="http://www.w3.org/1999/02/22-rdf-syntax-ns#" xmlns:svg="http://www.w3.org/2000/svg" xmlns="http://www.w3.org/2000/svg" xmlns:sodipodi="http://sodipodi.sourceforge.net/DTD/sodipodi-0.dtd" xmlns:inkscape="http://www.inkscape.org/namespaces/inkscape" width="50" height="50" viewBox="0 0 50 50" id="svg34864" sodipodi:version="0.32" inkscape:version="0.44" version="1.0" sodipodi:docbase="C:\Documents and Settings\Owner\Desktop\SVG work\Symbols" sodipodi:docname="Uranus's astrological symbol.svg">
  <defs id="defs34866"/>
  <sodipodi:namedview id="base" pagecolor="#ffffff" bordercolor="#666666" borderopacity="1.0" gridtolerance="10000" guidetolerance="10" objecttolerance="10" inkscape:pageopacity="0.0" inkscape:pageshadow="2" inkscape:zoom="5.6" inkscape:cx="40.112546" inkscape:cy="23.612944" inkscape:document-units="px" inkscape:current-layer="layer1" inkscape:window-width="853" inkscape:window-height="573" inkscape:window-x="361" inkscape:window-y="206"/>
  <metadata id="metadata34869">
    <rdf:RDF>
      <cc:Work rdf:about="">
        <dc:format>image/svg+xml</dc:format>
        <dc:type rdf:resource="http://purl.org/dc/dcmitype/StillImage"/>
      </cc:Work>
    </rdf:RDF>
  </metadata>
  <g inkscape:label="Layer 1" inkscape:groupmode="layer" id="layer1" transform="translate(-348.7552,-478.0905)">
    <path style="fill:black;fill-opacity:1;fill-rule:evenodd;stroke:none;stroke-width:3;stroke-linecap:butt;stroke-linejoin:miter;stroke-miterlimit:4;stroke-dasharray:none;stroke-opacity:1" d="M 363.40346,509.72756 L 356.40346,509.72756 L 356.40346,508.72756 L 360.40346,507.72756 L 360.40346,487.72756 L 356.40346,486.72756 L 356.40346,485.72756 L 363.40346,485.72756 L 363.40346,509.72756 z " id="path6778" sodipodi:nodetypes="ccccccccc"/>
    <path style="fill:black;fill-opacity:1;fill-rule:evenodd;stroke:none;stroke-width:3;stroke-linecap:butt;stroke-linejoin:miter;stroke-miterlimit:4;stroke-dasharray:none;stroke-opacity:1" d="M 385.40346,509.72756 L 392.40346,509.72756 L 392.40346,508.72756 L 388.40346,507.72756 L 388.40346,487.72756 L 392.40346,486.72756 L 392.40346,485.72756 L 385.40346,485.72756 L 385.40346,509.72756 z " id="path6780" sodipodi:nodetypes="ccccccccc"/>
    <path style="fill:none;fill-opacity:0.75;fill-rule:evenodd;stroke:black;stroke-width:3;stroke-linecap:butt;stroke-linejoin:miter;stroke-miterlimit:4;stroke-dasharray:none;stroke-opacity:1" d="M 362.40346,497.72756 L 386.40346,497.72756" id="path6782"/>
    <path style="opacity:1;color:black;fill:none;fill-opacity:0.75;fill-rule:evenodd;stroke:black;stroke-width:3;stroke-linecap:butt;stroke-linejoin:miter;marker:none;marker-start:none;marker-mid:none;marker-end:none;stroke-miterlimit:4;stroke-dasharray:none;stroke-dashoffset:0;stroke-opacity:1;visibility:visible;display:inline;overflow:visible" d="M 374.40346,485.72756 L 374.40346,511.72756" id="path6784"/>
    <path sodipodi:type="arc" style="opacity:1;color:black;fill:none;fill-opacity:0.75;fill-rule:evenodd;stroke:black;stroke-width:3;stroke-linecap:butt;stroke-linejoin:miter;marker:none;marker-start:none;marker-mid:none;marker-end:none;stroke-miterlimit:4;stroke-dasharray:none;stroke-dashoffset:0;stroke-opacity:1;visibility:visible;display:inline;overflow:visible" id="path6786" sodipodi:cx="36" sodipodi:cy="211" sodipodi:rx="4" sodipodi:ry="4" d="M 40 211 A 4 4 0 1 1  32,211 A 4 4 0 1 1  40 211 z" transform="translate(338.4034,305.7276)"/>
  </g>
</svg>

<?xml version="1.0" encoding="UTF-8" standalone="no"?>
<svg xmlns:rdf="http://www.w3.org/1999/02/22-rdf-syntax-ns#" xmlns="http://www.w3.org/2000/svg" version="1.0" xmlns:cc="http://creativecommons.org/ns#" xmlns:dc="http://purl.org/dc/elements/1.1/" viewBox="0 0 100 100">
	<g transform="translate(-348.7552,-428.0905)">
		<g transform="matrix(2.6315762,0,0,2.6315762,-586.51603,-846.19122)">
			<path d="m363.4,509.73-7,0,0-1,4-1,0-20-4-1,0-1,7,0,0,24z" fill-rule="evenodd" fill="#000"/>
			<path d="m385.4,509.73,7,0,0-1-4-1,0-20,4-1,0-1-7,0,0,24z" fill-rule="evenodd" fill="#000"/>
			<path stroke-linejoin="miter" d="m362.4,497.73,24,0" stroke="#000" stroke-linecap="butt" stroke-miterlimit="4" stroke-dasharray="none" stroke-width="3" fill="none"/>
			<path stroke-linejoin="miter" style="color:#000000;" d="m374.4,485.73,0,26" stroke-dashoffset="0" stroke="#000" stroke-linecap="butt" stroke-miterlimit="4" stroke-dasharray="none" stroke-width="3" fill="none"/>
			<path stroke-linejoin="miter" style="color:#000000;" d="m40,211c0,2.2091-1.7909,4-4,4s-4-1.7909-4-4,1.7909-4,4-4,4,1.7909,4,4z" transform="translate(338.4034,305.7276)" stroke-dashoffset="0" stroke="#000" stroke-linecap="butt" stroke-miterlimit="4" stroke-dasharray="none" stroke-width="3" fill="none"/>
		</g>
	</g>
</svg>
